X: 41187
T: Tripping Up The Stars
R: jig
M: 6/8
K: Dmajor
F2A AFA|B2dd2e|fed BdB|ABA FED|
G2B BdB|AdA FED|EGB GBd|1 cBA ADE:|2 cBA AFG||
Ade fed|=cef g2b|aff gee|fdd ecA|
G2B BdB|AdA FED|EGB GBd|1 cBA AFG:|2 cBA ADE||

